X:25
T:Brisk Bob
T:Frisky Bob
R:reel
L:1/8
Q:333
D:Snug in the Blanket,P.O'Brien,J.Gans,D.Sproule
O:Scottish strathspey in B minor
S:Paddy learned this setting from the late Johnny Cunnignham
Z:Paul Stewart Cranford (P.S.C.), <http://www.cranfordpub.com>
M:C|
K:Aaeo
B|(c/B/A) eA EAAB|(c/B/A) eA BGGB|(c/B/A) eA EAcd|efed cAAB|
(c/B/A) eA EAAB|(c/B/A) dA BGGB|AcBd cedf|efed cAA:|
|:e|aeed cAGB|cedc BGGB|aeed cAGB|cedB cAAz| 
aeed cAGB|cedc BGGB|Ac (B/c/d) cedf|efed cAA:|
